!! Stephen C. Foster, "There are Plenty of Fish in the Sea"
!! from 'Stephen Foster Song Book' Dover Publications (New York) pp. 127-129
!! NOTE:  Leading and trailing bars of rest have been omitted.
**kern
*M6/8
*MM60
*C:
8g
=1
4e
8g
8g
8f#
8g
=2
[4.cc
4cc]
8a
=3
4g
8e
4f
8d
=4
[4.e
4e]
8g
=5
4e
8g
8g
8f#
8g
=6
[4.cc
4cc]
8a
=7
4g
8e
4f
8d
=8
[4.c
4c]
8e
=9
4e
8a
4a
8cc
=10
[4.b
4b]
8e
=11
4e
8a
4b
8a
=12
[4.g
4g]
16g
16f
=13
8e
8g
8g
8g
8f#
8g
=14
[4.cc
4cc]
8a
=15
4g
8e
8f
8e
8d
=16
4e
8r
4r
16g
16f
=17
8e
8g
8g
8g
8f#
8g
=18
[4.ee
4ee;]
8cc
=19
4g
8e
8f
8e
8d
=20
4c
8r
4r
==
*-
